svg/free/exit-to-app.svg

<svg version="1.1" xmlns="http://www.w3.org/2000/svg" width="24" height="24" viewBox="0 0 24 24">
<title>exit-to-app</title>
<path d="M22.125 0.75h-20.25c-0.621 0.001-1.124 0.504-1.125 1.125v7.5h1.5v-7.125h19.5v19.5h-19.5v-7.5h-1.5v7.875c0.001 0.621 0.504 1.124 1.125 1.125h20.25c0.621-0.001 1.124-0.504 1.125-1.125v-20.25c-0.001-0.621-0.504-1.124-1.125-1.125h-0z"></path>
<path d="M9.815 17.030l1.061 1.061 6.31-6.31-6.31-6.31-1.061 1.061 4.5 4.5h-13.564v1.5h13.564l-4.5 4.5z"></path>
</svg>

<svg xmlns="http://www.w3.org/2000/svg" width="24" height="24" viewBox="0 0 24 24"><path d="M22.125.75H1.875A1.127 1.127 0 00.75 1.875v7.5h1.5V2.25h19.5v19.5H2.25v-7.5H.75v7.875a1.127 1.127 0 001.125 1.125h20.25a1.127 1.127 0 001.125-1.125V1.875A1.127 1.127 0 0022.125.75z"/><path d="M9.815 17.03l1.061 1.061 6.31-6.31-6.31-6.31-1.061 1.061 4.5 4.5H.751v1.5h13.564l-4.5 4.5z"/></svg>
